X: 22322
T: La Sansonette
R: reel
M: 4/4
K: Fdorian
|:G2 G2 F3 E|DEFG C4|CDEF G2 FG|B2 c2 G4|
G2 G2 F3 E|DEFG C4|CDEF G2 FE|DEFG C4:|
|:G2 EG AEGA|G2 EG AEGA|D3 G AEGA|D3 G AEGA|
G2 EG AEGA|G2 EG AEGA|D3 A GFED|CDED C4:|

